.local/share/icons/Gruvbox-Plus-Dark/panel/24/indicator-notification-read.svg

<svg xmlns="http://www.w3.org/2000/svg" width="24" height="24" version="1.1">
 <defs>
  <style id="current-color-scheme" type="text/css">
   .ColorScheme-Text { color:#ebdbb2; } .ColorScheme-Highlight { color:#458588; }
  </style>
 </defs>
 <path style="fill:currentColor" class="ColorScheme-Text" d="m 17.435547,4 c -0.05382,0.00219 -0.107384,0.00872 -0.160156,0.019531 L 6.9765625,6.1894531 c -0.00982,0.0031 -0.019582,0.00636 -0.029297,0.00977 C 5.5107246,6.5456889 4.4983224,7.6303201 3.8164062,8.8769531 3.1344904,10.123486 2.7241851,11.586308 2.4550781,13.013672 c -0.269107,1.427265 -0.3890597,2.819058 -0.4335937,3.90625 -0.02227,0.543597 -0.025668,1.00903 -0.017578,1.371094 0.005,0.223016 0.033788,0.377515 0.048828,0.535156 1.63e-4,0 -1.7e-4,-2.68e-4 0,0.0098 -0.00222,0.02468 -0.00352,0.04944 -0.00391,0.07422 h 0.00977 c 0.01128,0.07997 -0.0069,0.13785 0.023437,0.253906 0.1143398,0.435884 0.5062662,0.741427 0.9570313,0.746094 L 12.078125,20 c 0.07414,0.001 0.148159,-0.0062 0.220703,-0.02148 l 9.892578,-2.128907 c 0.443498,-0.09516 0.767389,-0.476775 0.789063,-0.929687 0,0 0.147573,-2.973066 -0.369141,-6.041016 C 22.352971,9.3449696 21.93849,7.7745224 21.177734,6.4746094 20.416979,5.1746964 19.181579,4.0986784 17.537109,4.0078125 c -0.03383,-0.00172 -0.06773,-0.00172 -0.101562,0 z m 0.05078,2.0195312 c 0.842493,0.069974 1.423078,0.529425 1.964844,1.4550782 0.556625,0.9511437 0.9521,2.3308395 1.1875,3.7285156 0.407935,2.421992 0.315148,4.256762 0.296875,4.865234 l -8.660156,1.861329 C 12.268691,15.427173 11.967762,9.410465 9.0625,7.7929688 Z M 6.9726562,8.9960938 C 9.9200093,8.9960938 10,17.992188 10,17.992188 H 4 c 0,0 0.0253,-8.9960944 2.9726562,-8.9960942 z M 14.539062,8 12.080078,8.2109375 12,8.3007812 13.181641,12.917969 13.294922,13 14.683594,12.933594 14.722656,12.792969 13.822266,9.398438 14.984375,9.322266 15,9.224609 14.603516,8.0742188 Z"/>
 <path style="opacity:0.3;fill:currentColor" class="ColorScheme-Text" d="m 6.9727499,8.996165 c 2.947353,0 3.0273441,8.99663 3.0273441,8.99663 H 4.0000939 c 0,0 0.0253,-8.99663 2.972656,-8.99663 z"/>
</svg>

<svg width="24" height="24" version="1.1" xmlns="http://www.w3.org/2000/svg">
  <defs>
    <style id="current-color-scheme" type="text/css">.ColorScheme-Text { color:#ebdbb2; } .ColorScheme-Highlight { color:#458588; } .ColorScheme-NeutralText { color:#fe8019; } .ColorScheme-PositiveText { color:#689d6a; } .ColorScheme-NegativeText { color:#fb4934; }</style>
  </defs>
  <path class="ColorScheme-Text" d="m17.44 4c-0.05382 0.00219-0.1074 0.00872-0.1602 0.01953l-10.3 2.17c-0.00982 0.0031-0.01958 0.00636-0.0293 0.00977-1.437 0.3465-2.449 1.431-3.131 2.678-0.6819 1.247-1.092 2.709-1.361 4.137-0.2691 1.427-0.3891 2.819-0.4336 3.906-0.02227 0.5436-0.02567 1.009-0.01758 1.371 5e-3 0.223 0.03379 0.3775 0.04883 0.5352 1.63e-4 0-1.7e-4 -2.68e-4 0 0.0098-0.00222 0.02468-0.00352 0.04944-0.00391 0.07422h0.00977c0.01128 0.07997-0.0069 0.1378 0.02344 0.2539 0.1143 0.4359 0.5063 0.7414 0.957 0.7461l9.039 0.08981c0.07414 1e-3 0.1482-0.0062 0.2207-0.02148l9.893-2.129c0.4435-0.09516 0.7674-0.4768 0.7891-0.9297 0 0 0.1476-2.973-0.3691-6.041-0.2584-1.534-0.6728-3.104-1.434-4.404-0.7608-1.3-1.996-2.376-3.641-2.467-0.03383-0.00172-0.06773-0.00172-0.1016 0zm0.05078 2.02c0.8425 0.06997 1.423 0.5294 1.965 1.455 0.5566 0.9511 0.9521 2.331 1.188 3.729 0.4079 2.422 0.3151 4.257 0.2969 4.865l-8.66 1.861c-0.006699-2.503-0.3076-8.519-3.213-10.14zm-10.51 2.977c2.947 0 3.027 8.996 3.027 8.996h-6s0.0253-8.996 2.973-8.996zm7.566-0.9961-2.459 0.2109-0.08008 0.08984 1.182 4.617 0.1133 0.08203 1.389-0.06641 0.03906-0.1406-0.9004-3.395 1.162-0.07617 0.01562-0.09766-0.3965-1.15z" fill="currentColor"/>
  <path class="ColorScheme-Text" d="m6.973 8.996c2.947 0 3.027 8.997 3.027 8.997h-6s0.0253-8.997 2.973-8.997z" fill="currentColor" opacity=".3"/>
</svg>
